X:1
T:Title
%%score { ( 1 3 4 ) | ( 2 5 6 ) }
L:1/8
M:4/4
K:Ab
V:1 treble nm="Grand Piano"
V:3 treble 
V:4 treble 
V:2 bass 
V:5 bass 
V:6 bass 
V:1
 z4 z2 z[Q:1/4=100] [CE] | [CE]>[CA] [CA]>B c2 A>A | [FB]>[FA] [DF]>[DA] [CE]3 [CE] | %3
 E>G F>E [CE]2 [CA]>[EG] | [DF]>[DB] [=DB]>[Dc] [EB]3 [_DE] | [CE]>[CA] [CA]>B c2 [CA]>[CA] | %6
 [EA]>[EA] B>c [Fd]3 [Fd] |[M:35/32] d>dc>[EB] [Ee]2 [Ee]-(3:2:4[Ee]3/2-[Ee]/4[Fd]3/4-[Fd]/8 | %8
[M:7/8] z z/ A/-A/4 z/4 z/ z/ B/-B/4 z/4 z/ z2 |[M:1/8] z |[M:4/4] z4 [Fd]2- [Fd]/4 z/4 z/ z | %11
 (5:4:5c2 c/ c/-c3/2_c/ z4 | z4 [=Dc]2- [Dc]/4 z/4 z/ z | %13
 (5:4:5[=DF]2 [DG]/ [DA]/-[DA]3/2[Dc]/ B3- B/4 z/4 z/ | z4 B2- B/4 z/4 z/ z | %15
[M:7/8] z z/ A/-A/4 z/4 z/ z/ c/-c/4 z/4 z/ z2 |[M:1/8] d | %17
[M:35/32] z2 c3/2-c/4 z2 z/4 [Ee]2- [Ee]/4 z/ |[M:7/8] c>Ac>B [CA]3 |] %19
V:2
 z4 z2 z [A,,A,] | [A,,A,]>[A,,E,] [A,,E,]>[E,G,D] [A,E]2 [A,CE]>[A,CE] | %2
 [D,D]>[D,D] [D,A,]>[D,F,] [A,,A,]3 [A,,A,] | %3
 [E,G,D]>[E,B,D] [E,A,D]>[E,G,D] [A,,A,]2 [A,,E,]>[C,A,] | %4
 [D,A,]>[D,F,] [B,,F,]>[B,,A,] [E,G,]3 [E,G,] | %5
 [A,,A,]>[A,,E,] [A,,E,]>[E,G,D] [A,E]2 [A,,A,]>[A,,A,] | %6
 [C,A,]>[C,A,] [E,G,E]>[A,_G] [D,A,]3 [D,A,] | %7
[M:35/32] [E,G,E]>[E,B,E][E,A,E]>[D,G,] [C,A,]2 [C,A,]-(3:2:4[C,A,]3/2-[C,A,]/4[D,A,]3/4-[D,A,]/8 | %8
[M:7/8] z z/ C/-C/4 z/4 z/ z z z2 |[M:1/8] A,, | %10
[M:4/4] (5:4:5[D,D]2 [D,D]/ [D,A,]/-[D,A,]3/2[D,A,]/ z2 (3:2:2[D,D]2 [D,D] | %11
 (5:4:5[A,E]2 [A,F]/ [A,E]/-[A,E]3/2[A,=D]/[K:bass] E3- E/4 z/4 z/ | %12
 (5:4:5[B,,A,]2 [B,,A,]/ [B,,B,]/-[B,,B,]3/2[B,,B,]/ z2 (3:2:2[B,,A,]2 [B,,F,] | %13
 (5:4:5[B,,B,]2 [B,,B,]/ [B,,F,]/-[B,,F,]3/2[B,,A,]/ G,3- G,/4 z/4 z/ | %14
 z4 [E,G,D]2- [E,G,D]/4 z/4 z/ z | %15
[M:7/8] z z/ [A,C]/-[A,C]/4 z/4 z/ z/ [A,E_G]/-[A,EG]/4 z/4 z/ z2 |[M:1/8] [D,A,]- | %17
[M:35/32] [D,A,]/4 z3/2 z/4 [E,A,E]3/2-[E,A,E]/4 z2 z/4 A,2 z3/4 | %18
[M:7/8] [E,A,E]>[E,CE][E,A,E]>[E,G,D] [A,,A,]3 |] %19
V:3
 x8 | x8 | x8 | x8 | x8 | x8 | x8 |[M:35/32] x35/4 |[M:7/8] c3/2-c/4 z/4 c3/2-c/4 z/4 [CA]3 | %9
[M:1/8] x |[M:4/4] (5:4:5[FA]2 [Fd]/ [Fd]/-[Fd]3/2[Fd]/ z2 (3:2:2[FA]2 [=EB] | z4 (3:2:2=c4 [Ec]2 | %12
 (5:4:5[=Dc]2 [DB]/ [DA]/-[DA]3/2[DF]/ z2 (3:2:2[DB]2 [DA] | z4 (3:2:2E4 [_DE]2 | %14
 (5:4:5[CE]2 [Ec]/ [Ec]/-[Ec]3/2B/ z2 (3:2:2A2 A |[M:7/8] z2 B3/2-B/4 z/4 z z2 |[M:1/8] F- | %17
[M:35/32] [Fd-]/4d-d/<d/ z z/4 (3:2:4[EB]3/4-[EB]/8[Ee]3/2-[Ee]/4-[Ee]3/4 z2 [Fd]3/4 |[M:7/8] x7 |] %19
V:4
 x8 | x8 | x8 | x8 | x8 | x8 | x8 |[M:35/32] x35/4 |[M:7/8] z z z2 A,3- | %9
[M:1/8] [A,C-_G-A-]/<[CGA]/ |[M:4/4] x8 | x8 | x8 | x8 | x8 |[M:7/8] A2 z2 [Fd]3 |[M:1/8] x | %17
[M:35/32] x35/4 |[M:7/8] x7 |] %19
V:5
 x8 | x8 | x8 | x8 | x8 | x8 | x8 |[M:35/32] x35/4 |[M:7/8] [E,E]>[E,E][A,E]3/2-[A,E]/4 z/4 A,,3 | %9
[M:1/8] x |[M:4/4] z4 [D,A,]2- [D,A,]/4 z/4 z/ z | z4[K:bass] (3:2:2A,4 [A,,A,]2 | %12
 z4 [B,,A,]2- [B,,A,]/4 z/4 z/ z | z4 (3:2:2E,4 [E,G,]2 | %14
 (5:4:5[A,,A,]2 [A,,A,]/ [A,,A,]/-[A,,A,]3/2[E,G,D]/ z2 (3:2:2[A,C]2 [A,C] | %15
[M:7/8] [A,CE]>E E2 D3- |[M:1/8] D/4 z/4 z/ | %17
[M:35/32] [E,E]3/2[E,B,E]3/4 z z/4 (3:2:4[D,G,]3/4-[D,G,]/8[C,A,]3/2-[C,A,]/4-[C,A,]3/4 C,2- [C,D,-A,-]/4[D,A,]/ | %18
[M:7/8] x7 |] %19
V:6
 x8 | x8 | x8 | x8 | x8 | x8 | x8 |[M:35/32] x35/4 | %8
[M:7/8] A,3/2-A,/4 z/4 E,>[E,G,D]-[E,G,D]/4 z/4 z/ z2 |[M:1/8] x |[M:4/4] x8 | x4[K:bass] x4 | x8 | %13
 x8 | x8 |[M:7/8] z2 G,3/2-G,/4 z/4 D,3 |[M:1/8] x |[M:35/32] G,3/2-G,/4 z3/2 z/4 z3/2 z/4 z3 z/ | %18
[M:7/8] x7 |] %19

